X:142
T:Colin's BMX
M:4/4
L:1/4
C:Trevor Monson, 2004
S:Colin Hume's website,  colinhume.com  - chords can also be printed below the stave.
Q:1/2=90
K:G
P:A
[| "G"B/c/d/e/ d e/f/ | "G"gd B3/c/ | "D"d3/c/ BA | "G"G A/B/ "D"A3/d/ |\
"C"ge "G"dB | "Em"G/A/B "D"AB/c/ | "G"d/c/B/A/ "Em"GB | "D"A3/B/ "G"G2 |
P:B
|: "C"E/E3/ "G"D3/G/ | "G"B/d3/ "C"e2 | "G"B/c/d/c/ B/A/G/F/ | "Em"BG "C"ED |
"C"EF "G"G/B3/ | "Em"B/e3/ "Bm"d2 | "Em"eB "D"AD |1 "C"E/A3/ "G"G3/F/ :|2 "C"EG/A/ "G"G2 |
P:C
"D"DE FG | "D"AG FA | "Am"cB AG | "D"F/G/A/G/ F3/D/ |\
"D"DE FG | "Am"AG "D"FA | "Am"cB "D"Ad | "D"d/e/f "G"g2 |]

